!! G. F. Handel, "Fuga II" for keyboard (1735) from Hallische Haendel-Ausgabe
!! Baerenreiter Kassel (Basel) 1970; Serie IV, Band 6, pp.4-8
!! HHA iv/6,4   New Grove No. 231; for four voices.
!! NOTE:  Double-stops occur in bars 78 and 124.  A number of voicing
!!        abberations occur in this work; this encoding includes a number
!!        of interpretive 'fixes'.
!! NOTE:  This file has been validated through the double-entry
!!        error detection method.
**kern	**kern	**kern	**kern
*M4/4	*M4/4	*M4/4	*M4/4
=1	=1	=1	=1
1r	1r	1r	2r
.	.	.	8r
.	.	.	8dd
.	.	.	8dd
.	.	.	8dd
=2	=2	=2	=2
1r	1r	1r	4b
.	.	.	4g
.	.	.	4a
.	.	.	4b
=3	=3	=3	=3
1r	1r	1r	8cc
.	.	.	8c
.	.	.	8c
.	.	.	8c
.	.	.	8c
.	.	.	8c
.	.	.	8c
.	.	.	8c
=4	=4	=4	=4
1r	1r	1r	8f
.	.	.	4c
.	.	.	8B
.	.	.	8A
.	.	.	8g
.	.	.	4f#
=5	=5	=5	=5
1r	1r	2r	8g
.	.	.	8f#
.	.	.	8g
.	.	.	8a
.	.	8r	4.b
.	.	8g	.
.	.	8g	.
.	.	8g	8cc
=6	=6	=6	=6
1r	1r	4f#	4a
.	.	4d	8r
.	.	.	8dd
.	.	4e	4.cc
.	.	4f#	.
.	.	.	16dd
.	.	.	16cc
=7	=7	=7	=7
1r	1r	8g	8b
.	.	8G	8a
.	.	8G	8g
.	.	8G	8f#
.	.	8G	8e
.	.	8G	8d
.	.	8G	8c#
.	.	8G	8B
=8	=8	=8	=8
1r	1r	8c#	4A
.	.	4G	.
.	.	.	4a
.	.	8F#	.
.	.	8E	4.g
.	.	8d	.
.	.	4c#	.
.	.	.	16a
.	.	.	16g
=9	=9	=9	=9
1r	1r	4d	4f#
.	.	8r	[4b
.	.	8d	.
.	.	4.e	8b]
.	.	.	8g
.	.	.	[4cc
.	.	16d	.
.	.	16e	.
=10	=10	=10	=10
1r	2r	4f#	8cc]
.	.	.	8a
.	.	[4g	8b
.	.	.	8cc
.	8r	4g]	2a
.	8d	.	.
.	8d	4f#	.
.	8d	.	.
=11	=11	=11	=11
1r	4B	4g	8g
.	.	.	8dd
.	4G	8r	8cc
.	.	8g	8b
.	4A	4.fn	4cc
.	4B	.	4dd
.	.	16g	.
.	.	16f	.
=12	=12	=12	=12
1r	8c	8e	4g
.	8C	8d	.
.	8C	8c	8r
.	8C	8B	8g
.	8C	8A	4.cc
.	8C	8G	.
.	8C	8F	.
.	8C	8E	8ee
=13	=13	=13	=13
1r	8F#	4D	4a
.	4C	.	.
.	.	8r	4dd
.	8BB	8d	.
.	8AA	4e	4.cc
.	8G	.	.
.	4F#	4d	.
.	.	.	16dd
.	.	.	16cc
=14	=14	=14	=14
1r	8G	8d	4b
.	8GG	[8b	.
.	8BB	4b]	[4gg
.	8C	.	.
.	8D	2a	4gg]
.	8E	.	.
.	8F#	.	[4ff#
.	8D	.	.
=15	=15	=15	=15
1r	8E	2g	4ff#]
.	8F#	.	.
.	8G	.	[4ee
.	8A	.	.
.	8B	2f#	4ee]
.	8c#	.	.
.	8d	.	4dd
.	8B	.	.
=16	=16	=16	=16
2r	4e	4g	4cc#
.	4d	4f#	[4dd
8r	2e	2g	4dd]
8G	.	.	.
8G	.	.	4cc#
8G	.	.	.
=17	=17	=17	=17
4F#	4A	8r	4dd
.	.	8a	.
4D	8r	8g	4b
.	8d	8f#	.
4E	4.c	4g	4ccn
4F#	.	4f#	4a
.	16d	.	.
.	16c	.	.
=18	=18	=18	=18
8G	2B	2d	8b
8GG	.	.	8a
8GG	.	.	8g
8GG	.	.	8f#
8GG	8e	2g	2b
8GG	8d	.	.
8GG	8c#	.	.
8GG	8B	.	.
=19	=19	=19	=19
8C#	4.A	4e	4ee
4GG	.	.	.
.	.	4d	4a
8FF#	8A	.	.
8EE	4B	[2e	4.g
8D	.	.	.
4C#	4A	.	.
.	.	.	16a
.	.	.	16g
=20	=20	=20	=20
8D	2A	4e]	2f#
8E	.	.	.
8F#	.	[4d	.
8D	.	.	.
8G	4B	4d]	2e
8E	.	.	.
8A	4A	[4c	.
8G	.	.	.
=21	=21	=21	=21
8F#	4A	4c]	2d
8D	.	.	.
4r	[4G	4B	.
8r	4G]	2A	2d
8D	.	.	.
8D	4F#	.	.
8D	.	.	.
=22	=22	=22	=22
4BB	4G	4B	8r
.	.	.	8g
4GG	8r	4r	8g
.	8B	.	8g
4AA	4.A	2r	4f#
4BB	.	.	4d
.	16B	.	.
.	16A	.	.
=23	=23	=23	=23
4C	4G	1r	8e
.	.	.	8a
4AA	4c	.	8a
.	.	.	8a
4BB	4.B	.	4g
4C	.	.	4e
.	16c	.	.
.	16B	.	.
=24	=24	=24	=24
4D	4A	1r	8f#
.	.	.	8b
4BB	4d	.	8b
.	.	.	8b
4C	4.c	.	4a
4D	.	.	4f#
.	16d	.	.
.	16c	.	.
=25	=25	=25	=25
4.E	8B	1r	8g
.	8G	.	16a
.	.	.	16b
.	8e	.	[4cc
16D	16f#	.	.
16E	16g	.	.
4F#	2d	.	8cc]
.	.	.	8b
[4G	.	.	8b
.	.	.	16a
.	.	.	16g
=26	=26	=26	=26
4G]	2d	2a	8r
.	.	.	8dd
4F#	.	.	8dd
.	.	.	8dd
4G	4d	4g	8b
.	.	.	8gg
4E	4c#	4g	8gg
.	.	.	8gg
=27	=27	=27	=27
4D	4d	4a	4ff#
4G	4r	4b	4dd
4C	8r	8cc	4ee
.	8cn	8r	.
4D	8c	4r	4ff#
.	8c	.	.
=28	=28	=28	=28
4G	8B	1r	8gg
.	8A	.	8g
4r	8G	.	8g
.	8F#	.	8g
2r	8E	.	8g
.	8D	.	8g
.	8C#	.	8g
.	8BB	.	8g
=29	=29	=29	=29
4r	2AA	1r	8cc#
.	.	.	4g
4A	.	.	.
.	.	.	8f#
4.G	2r	.	8e
.	.	.	8dd
.	.	.	4cc#
16A	.	.	.
16G	.	.	.
=30	=30	=30	=30
8F#	1r	8r	[2dd
8E	.	8d	.
8D	.	8d	.
8Cn	.	8d	.
8BB	.	8d	8dd]
8AA	.	8d	8ccn
8GG#	.	8d	8b
8FF#	.	8d	8a
=31	=31	=31	=31
2EE	1r	8g#	4b
.	.	4d	.
.	.	.	[4a
.	.	8c	.
8r	.	4B	8a]
8E	.	.	8g#
8F#	.	4e	8a
8G#	.	.	8b
=32	=32	=32	=32
[2A	1r	8r	2.cc
.	.	8e	.
.	.	8f#	.
.	.	8g#	.
8A]	.	[2a	.
8Gn	.	.	.
8F#	.	.	4cc
8E	.	.	.
=33	=33	=33	=33
8D#	1r	4a]	4.b
8BB	.	.	.
8E	.	8gn	.
8Dn	.	8f#	8b
2C	.	8e	4.ee
.	.	16f#	.
.	.	16g#	.
.	.	[4a	.
.	.	.	16ff#
.	.	.	16ee
=34	=34	=34	=34
4BB	1r	4a]	8dd#
.	.	.	8b
8r	.	4gn	[4gg
8B	.	.	.
4c#	.	[2a	4gg]
4d#	.	.	4ff#
=35	=35	=35	=35
8e	1r	4a]	[2b
8E	.	.	.
8E	.	8g	.
8E	.	8f#	.
8E	.	2g	8b]
8E	.	.	8ddn
8E	.	.	8cc#
8E	.	.	8b
=36	=36	=36	=36
8A#	1r	4f#	4cc#
4E	.	.	.
.	.	4r	4ff#
8D	.	.	.
8C#	.	2r	4.ee
8B	.	.	.
4A#	.	.	.
.	.	.	16ff#
.	.	.	16ee
=37	=37	=37	=37
8B	1r	4r	8dd
8c#	.	.	8ee
8d	.	4f#	[4ff#
8D	.	.	.
4.E	.	4.g#	8ff#]
.	.	.	8b
.	.	.	[4ee
8E	.	16f#	.
.	.	16g#	.
=38	=38	=38	=38
4F#	2r	4a#	8ee]
.	.	.	8ff#
4BB	.	[4b	8dd
.	.	.	8ee
2F#	8r	4b]	2cc#
.	8f#	.	.
.	8f#	4a#	.
.	8f#	.	.
=39	=39	=39	=39
4B	4d#	4b	8r
.	.	.	8bb
4B	4r	4r	8bb
.	.	.	8bb
4e	2r	2r	8gg#
.	.	.	8ddn
4G#	.	.	8dd
.	.	.	8dd
=40	=40	=40	=40
4A	1r	2r	8cc#
.	.	.	8gn
4c#	.	.	8g
.	.	.	8g
4d	.	4f#	8r
.	.	.	8dd
4D	.	4r	8dd
.	.	.	8dd
=41	=41	=41	=41
4E	1r	4r	4ccn
4F#	.	4a	4a
4G	.	4.g	8b
.	.	.	8ee
4E	.	.	8ee
.	.	16a	8ee
.	.	16g	.
=42	=42	=42	=42
4F#	1r	4f#	4dd
4G	.	4b	4b
4A	.	4.a	8cc#
.	.	.	8ff#
4F#	.	.	8ff#
.	.	16b	8ff#
.	.	16a	.
=43	=43	=43	=43
4G	1r	4.g	4ee
4A	.	.	4cc#
.	.	8g	.
4.B	.	8f#	8dd
.	.	8d	16ee
.	.	.	16ff#
.	.	8b	[4gg
8B	.	16cc#	.
.	.	16dd	.
=44	=44	=44	=44
8c#	1r	2a	4gg]
8A	.	.	.
[4d	.	.	8ff#
.	.	.	8gg
4d]	.	8r	2ee
.	.	8g	.
4c#	.	8g	.
.	.	8g	.
=45	=45	=45	=45
4d	1r	4f#	4dd
4BB	.	4d	8r
.	.	.	8dd
4C	.	4e	4.cc
4D	.	4f#	.
.	.	.	16dd
.	.	.	16cc
=46	=46	=46	=46
4GG	1r	8g	8b
.	.	8G	8a
4BB	.	8G	8g
.	.	8G	8f#
8E	.	8G	8g
8D	.	8G	8f#
8C#	.	8G	8e
8BB	.	8G	8d
=47	=47	=47	=47
[2AA	1r	8c#	4e
.	.	4G	.
.	.	.	4a
.	.	8F#	.
2AA]	.	8E	4.g
.	.	8d	.
.	.	4c#	.
.	.	.	16a
.	.	.	16g
=48	=48	=48	=48
4DD	1r	4d	8f#
.	.	.	4cn
4D	.	4r	.
.	.	.	8B
4.C	.	2r	8A
.	.	.	8g
.	.	.	4f#
16D	.	.	.
16C	.	.	.
=49	=49	=49	=49
4BB	1r	1r	8g
.	.	.	4fn
4G	.	.	.
.	.	.	8e
4.Fn	.	.	8d
.	.	.	8cc
.	.	.	4b
16G	.	.	.
16F	.	.	.
=50	=50	=50	=50
4E	1r	1r	8cc
.	.	.	4g
4A	.	.	.
.	.	.	8f#
4.G	.	.	8e
.	.	.	8dd
.	.	.	4cc#
16A	.	.	.
16G	.	.	.
=51	=51	=51	=51
4F#	1r	1r	8dd
.	.	.	4a
4B	.	.	.
.	.	.	8g
4.A	.	.	8f#
.	.	.	8ee
.	.	.	4dd#
16B	.	.	.
16A	.	.	.
=52	=52	=52	=52
4G	1r	1r	8ee
.	.	.	8b
8r	.	.	4ee
8G	.	.	.
8F#	.	.	4.ff#
8e	.	.	.
4d#	.	.	.
.	.	.	16ee
.	.	.	16ff#
=53	=53	=53	=53
8e	1r	1r	4gg
4E	.	.	.
.	.	.	4b
8Dn	.	.	.
8C#	.	.	4.cc#
8B	.	.	.
4A#	.	.	.
.	.	.	16b
.	.	.	16cc#
=54	=54	=54	=54
8B	1r	1r	4dd
4G	.	.	.
.	.	.	4dd
8F#	.	.	.
8E	.	.	4.ee
8d	.	.	.
4c#	.	.	.
.	.	.	16dd
.	.	.	16ee
=55	=55	=55	=55
8d	1r	1r	4ff#
4D	.	.	.
.	.	.	4a
8Cn	.	.	.
8BB	.	.	4.b
8A	.	.	.
4G#	.	.	.
.	.	.	16a
.	.	.	16b
=56	=56	=56	=56
4A	1r	4r	8cc
.	.	.	8a
4AA	.	8r	4ee
.	.	8c	.
4.BB	.	8B	4.dd
.	.	8a	.
.	.	4g#	.
16AA	.	.	16ee
16BB	.	.	16dd
=57	=57	=57	=57
4C	4r	8a	4cc
.	.	8e	.
4D	8r	4fn	8r
.	8d	.	8ffn
4E	4.c	4gn	4.ee
4Fn	.	4a	.
.	16d	.	16ff
.	16c	.	16ee
=58	=58	=58	=58
4G	4B	8b	4dd
.	.	8d	.
4G	4r	8d	4b
.	.	8d	.
4.Fn	2r	8d	4.a
.	.	8d	.
.	.	8d	.
16G	.	8d	16b
16F	.	.	16a
=59	=59	=59	=59
4E	1r	4g#	8dd
.	.	.	8b
4A	.	[4a	4cc
4.B	.	4a]	2b
.	.	4g#	.
16A	.	.	.
16B	.	.	.
=60	=60	=60	=60
8c	1r	4a	4r
4A	.	.	.
.	.	8cc	4ee
8G	.	8b	.
8F#	.	4a	4.ff#
8e	.	.	.
4d#	.	[4b	.
.	.	.	16ee
.	.	.	16ff#
=61	=61	=61	=61
8e	1r	8b]	4gg
4E	.	4b	.
.	.	.	4ff#
8D	.	8b	.
8C	.	4e	4.ee
8B	.	.	.
4A	.	4r	.
.	.	.	16ff#
.	.	.	16ee
=62	=62	=62	=62
4B	1r	8r	4dd#
.	.	8f#	.
4BB	.	8f#	4r
.	.	8f#	.
2r	.	4d#	8r
.	.	.	8bb
.	.	4B	8bb
.	.	.	8bb
=63	=63	=63	=63
4r	1r	1r	4gg
4e	.	.	4ee
4.dn	.	.	4ff#
.	.	.	4gg#
16e	.	.	.
16d	.	.	.
=64	=64	=64	=64
8c	1r	1r	8aa
8B	.	.	8a
8A	.	.	8a
8G	.	.	8a
8F#	.	.	8a
8E	.	.	8a
8D#	.	.	8a
8C#	.	.	8a
=65	=65	=65	=65
2BB	4r	1r	8dd#
.	.	.	4a
.	4B	.	.
.	.	.	8g
4r	4.A	.	8f#
.	.	.	8ee
4BB	.	.	4dd#
.	16B	.	.
.	16A	.	.
=66	=66	=66	=66
4.C	8G#	1r	4ee
.	8E	.	.
.	[4A	.	8r
16BB	.	.	8a
16C	.	.	.
8D	4A]	.	4.b
8BB	.	.	.
4E	4G#	.	.
.	.	.	16a
.	.	.	16b
=67	=67	=67	=67
4AA	4A	4r	1cc
4r	4c	4e	.
2r	4.d	4.f#	.
.	16c	16e	.
.	16d	16f#	.
=68	=68	=68	=68
4r	4e	4g	4b
4AA	4A	4c	4cc
4BB	4.G	4d	4.b
4C	.	4e	.
.	16A	.	16cc
.	16G	.	16b
=69	=69	=69	=69
4D	4F#	4f#	4a
4BB	4B	4d	4dd
4C	4.A	4e	4.cc
4D	.	4f#	.
.	16B	.	16dd
.	16A	.	16cc
=70	=70	=70	=70
4.E	2G	4.g	4b
.	.	.	[4cc
16D	.	16f#	.
16E	.	16e	.
8F#	4d	4a	4cc]
8D	.	.	.
4G	4d	[4g	4b
=71	=71	=71	=71
8r	2d	4g]	2a
8D	.	.	.
8D	.	4f#	.
8D	.	.	.
8BB	4r	4d	4g
8G	.	.	.
8G	4B	4g	4r
8G	.	.	.
=72	=72	=72	=72
4F#	4.A	4a	1r
4D	.	4b	.
.	16B	.	.
.	16A	.	.
8E	8G	4cc	.
8A	8r	.	.
8A	4c	4a	.
8A	.	.	.
=73	=73	=73	=73
4G	4.B	4b	1r
4E	.	4cc	.
.	16c	.	.
.	16B	.	.
4F#	4A	8dd	.
.	.	8dd	.
4B	4d	8dd	.
.	.	8dd	.
=74	=74	=74	=74
4.A	4e	4cc	1r
.	4f#	4a	.
16B	.	.	.
16A	.	.	.
4G	4g	4b	.
[4c	4e	4ee	.
=75	=75	=75	=75
4c]	4f#	4.dd	2r
4B	[4g	.	.
.	.	16ee	.
.	.	16dd	.
2A	4g]	4cc#	8r
.	.	.	8aa
.	4f#	[4dd	8aa
.	.	.	8aa
=76	=76	=76	=76
1r	4e	4dd]	4gg
.	[4a	4cc#	4ee
.	4a]	8dd	4ff#
.	.	8b	.
.	4g	4ee	[4gg
=77	=77	=77	=77
2r	4.f#	4a	4gg]
.	.	4dd	4ff#
.	8g	.	.
4r	8a	4dd	2ee
.	8e	.	.
4AA	4a	4cc#	.
=78	=78	=78	=78
4.BB	4r	4a	2dd
.	4D	[4g	.
16AA	.	.	.
16BB	.	.	.
8C#	4E 4A	4g]	2r
8AA	.	.	.
[4D	4F# 4A	4f#	.
=79	=79	=79	=79
4D]	4G	2e	1r
4C#	4E	.	.
4D	4F#	2d	.
8r	4G	.	.
8D	.	.	.
=80	=80	=80	=80
4.Cn	4A	2r	1r
.	4F#	.	.
16D	.	.	.
16C	.	.	.
8BB	8G	4r	.
8E	8A	.	.
8E	8B	4g	.
8E	8c#	.	.
=81	=81	=81	=81
4D	4d	4.f#	1r
4BB	4d	.	.
.	.	16g	.
.	.	16f#	.
4C	4.cn	4e	.
8r	.	4a	.
8AA	16d	.	.
.	16c	.	.
=82	=82	=82	=82
4BB	4B	4.g	1r
4C	4e	.	.
.	.	16a	.
.	.	16g	.
4D	4.d	4f#	.
4BB	.	[4b	.
.	16e	.	.
.	16d	.	.
=83	=83	=83	=83
4E	4.c	4b]	1r
4F#	.	[4a	.
.	16d	.	.
.	16c	.	.
4G	4B	8a]	.
.	.	8d	.
4E	[4c	8g	.
.	.	16a	.
.	.	16g	.
=84	=84	=84	=84
[2D	8c]	4f#	2r
.	16B	.	.
.	16A	.	.
.	8B	[4g	.
.	8c	.	.
2D]	2A	4g]	8r
.	.	.	8dd
.	.	4f#	8dd
.	.	.	8dd
=85	=85	=85	=85
4G	1r	4r	4b
4r	.	4g	4g
8r	.	4.f#	4a
8DD	.	.	.
8DD	.	.	4b
8DD	.	16g	.
.	.	16f#	.
=86	=86	=86	=86
4EE	1r	4e	8cc
.	.	.	8c
4GG	.	4r	8c
.	.	.	8c
4FF#	.	2r	8c
.	.	.	8c
4EE	.	.	8c
.	.	.	8c
=87	=87	=87	=87
8DD	1r	4r	8f#
8D	.	.	4c
8D	.	4d	.
8D	.	.	8B
8D	.	4.c	8A
8D	.	.	8g
8D	.	.	4f#
8D	.	16d	.
.	.	16c	.
=88	=88	=88	=88
4BB	1r	4d	4g
4GG	.	4B	4r
4AA	.	4c	8r
.	.	.	8g
4BB	.	4d	8g
.	.	.	8g
=89	=89	=89	=89
4C	1r	4e	4a
8r	.	4r	4cc
8C	.	.	.
4.D	.	2r	4b
.	.	.	4a
16C	.	.	.
16D	.	.	.
=90	=90	=90	=90
4E	1r	1r	8g
.	.	.	8gg
8F#	.	.	8gg
8G	.	.	8gg
8A	.	.	8gg
8B	.	.	8gg
8c#	.	.	8gg
8d	.	.	8gg
=91	=91	=91	=91
4e	1r	1r	8cc#
.	.	.	4gg
8A	.	.	.
8d	.	.	[8ffn
4B-	.	.	8ff]
.	.	.	8ee
4g	.	.	8ee
.	.	.	16ff
.	.	.	16gg
=92	=92	=92	=92
[2A	8r	2r	4cc#
.	8fn	.	.
.	8f	.	4aa
.	8f	.	.
2A]	4e	8r	4.gg
.	.	8a	.
.	4c#	8a	.
.	.	8a	16aa
.	.	.	16gg
=93	=93	=93	=93
2d	2d	4b-	4ffn
.	.	4dd	8r
.	.	.	8ff
8r	2e	4cc	[2gg
8d	.	.	.
8d	.	4b-	.
8d	.	.	.
=94	=94	=94	=94
4c#	1r	8a	2gg]
.	.	8aa	.
4A	.	8aa	.
.	.	8aa	.
4B	.	4ffn	8aa
.	.	.	8aa
4c#	.	4ee	8aa
.	.	.	8aa
=95	=95	=95	=95
8d	1r	4.a	8ffn
8D	.	.	8ee
8D	.	.	8dd
8D	.	8cc	8cc
8D	.	8b	4.dd
8D	.	8a	.
8D	.	8g#	.
8D	.	8f#	16cc
.	.	.	16dd
=96	=96	=96	=96
8G#	1r	4e	4ee
4D	.	.	.
.	.	4e	4r
8C	.	.	.
8BB	.	4.d	2r
8A	.	.	.
4G#	.	.	.
.	.	16e	.
.	.	16d	.
=97	=97	=97	=97
8A	1r	4c	4r
8E	.	.	.
8E	.	4g	4ee
8E	.	.	.
4F#	.	4.a	4dd
4A	.	.	4cc
.	.	16g	.
.	.	16a	.
=98	=98	=98	=98
8G	1r	4b	4b
8D	.	.	.
8D	.	4f#	4dd
8D	.	.	.
4E	.	4.g	4cc
4G	.	.	4b
.	.	16f#	.
.	.	16g	.
=99	=99	=99	=99
8F#	2r	4a	4a
8D	.	.	.
8D	.	8f#	4cc
8D	.	8e	.
4G	4r	4d	8b
.	.	.	8dd
4d	4f#	4a	8dd
.	.	.	8dd
=100	=100	=100	=100
4e	4.d	4g	4ee
4G	.	4b	4gg
.	8B	.	.
4.A	4.c#	4a	4ff#
.	.	4g	4ee
16G	16B	.	.
16A	16c#	.	.
=101	=101	=101	=101
4B	4d	4f#	4dd
8r	4r	4a	4ff#
8F#	.	.	.
4.G	2r	4g	4ee
.	.	4f#	4dd
16F#	.	.	.
16G	.	.	.
=102	=102	=102	=102
4A	1r	4e	4cc#
8r	.	4g	4ee
8E	.	.	.
4.F#	.	4f#	4dd
.	.	4e	4cc#
16E	.	.	.
16F#	.	.	.
=103	=103	=103	=103
4G	4r	4d	4b
8r	4f#	4dd	4r
8D	.	.	.
4.E	4e	4cc#	2r
.	4d	4b	.
16D	.	.	.
16E	.	.	.
=104	=104	=104	=104
[2F#	8c#	4a#	2r
.	4e	.	.
.	.	[4b	.
.	8d	.	.
2F#]	2c#	4b]	8r
.	.	.	8ff#
.	.	4a#	8ff#
.	.	.	8ff#
=105	=105	=105	=105
2B	1r	4r	4dd
.	.	4b	4b
8r	.	4.an	4cc#
8FF#	.	.	.
8FF#	.	.	4dd#
8FF#	.	16b	.
.	.	16a	.
=106	=106	=106	=106
4GG	1r	4g	8ee
.	.	.	8e
4BB	.	4r	8e
.	.	.	8e
4AA	.	2r	8e
.	.	.	8e
4GG	.	.	8e
.	.	.	8e
=107	=107	=107	=107
8FF#	1r	1r	8a#
8F#	.	.	4e
8F#	.	.	.
8F#	.	.	8d
8F#	.	.	8c#
8F#	.	.	8b
8F#	.	.	4a#
8F#	.	.	.
=108	=108	=108	=108
4D#	1r	4r	4b
4BB	.	4d#	4r
4C#	.	4e	8r
.	.	.	8b
4D#	.	4f#	8b
.	.	.	8b
=109	=109	=109	=109
4E	4r	2g	4cc
4r	4e	.	4ee
2r	4.f#	2a	4dd
.	.	.	4cc
.	16e	.	.
.	16f#	.	.
=110	=110	=110	=110
4r	4g	4r	4b
4B	4d	4r	4dd
4.c	4.e	4cc	8r
.	.	.	8gg
.	.	4b	8gg
16B	16d	.	8gg
16c	16e	.	.
=111	=111	=111	=111
4d	4f#	4a	4ff#
4d	4r	4f#	4dd
4.c	2r	4g	4ee
.	.	4a	4ff#
16d	.	.	.
16c	.	.	.
=112	=112	=112	=112
8B	2d	8r	8gg
8A	.	8g	8r
8G	.	8g	4r
8F#	.	8g	.
8E	4r	8g	2r
8D	.	8g	.
8C#	4e	8g	.
8BB	.	8g	.
=113	=113	=113	=113
4AA	1A	8cc#	4r
.	.	4g	.
4r	.	.	4aa
.	.	8f#	.
2r	.	8e	4.gg
.	.	8dd	.
.	.	4cc#	.
.	.	.	16aa
.	.	.	16gg
=114	=114	=114	=114
[1D	2r	4dd	4ff#
.	.	4d	4f#
.	8r	4e	4g
.	8d	.	.
.	8d	4f#	4a
.	8d	.	.
=115	=115	=115	=115
1D_	4B	4g	4.b
.	4G	4g	.
.	.	.	16cc
.	.	.	16b
.	4A	4.f#	4a
.	4B	.	4r
.	.	16g	.
.	.	16f#	.
=116	=116	=116	=116
1D_	4c	4e	1r
.	4A	4a	.
.	4B	4.g	.
.	4c	.	.
.	.	16a	.
.	.	16g	.
=117	=117	=117	=117
1D_	4d	4f#	2r
.	4B	[4g	.
.	4A	4g]	8r
.	.	.	8a
.	4d	4f#	8a
.	.	.	8a
=118	=118	=118	=118
1D_	2B	4b	4r
.	.	4dd	4dd
.	4A	4cc	4.ee
.	4G	4b	.
.	.	.	16dd
.	.	.	16ee
=119	=119	=119	=119
1D]	1d	4a	4ff#
.	.	4cc	4ff#
.	.	4b	4gg
.	.	4a	4aa
=120	=120	=120	=120
1d	4r	4g	4bb
.	4b	4dd	4gg
.	4a	4cc	4aa
.	4g	4b	4bb
=121	=121	=121	=121
4d	1f#	1a	8ccc
.	.	.	8cc
8c	.	.	8cc
8B	.	.	8cc
8A	.	.	8cc
8G	.	.	8cc
8F#	.	.	8cc
8E	.	.	8cc
=122	=122	=122	=122
4D	1F#	1A	8cc
.	.	.	8c
8C	.	.	8c
8BB	.	.	8c
8AA	.	.	8c
8GG	.	.	8c
8FF#	.	.	8c
8EE	.	.	8c
=123	=123	=123	=123
1DD	4A	4c	4f#
.	4B	4d	4g
!! Adagio
.	4A	4.c	4g
.	4D	.	4f#
.	.	16d	.
.	.	16c	.
=124	=124	=124	=124
1GG 1D	1G	1B 1d	1g
====	====	====	====
*-	*-	*-	*-
